X:1
T:Title
%%score { ( 1 4 ) | ( 2 3 ) }
L:1/8
M:6/8
K:C
V:1 treble nm="Grand Piano"
V:4 treble 
V:2 bass 
V:3 bass 
V:1
 z3 z2[Q:1/4=87] [EG] | [_E^F]2 [EA] [=EG]2 [Ec] | [_E^F]2 [EA] [=EG]2 [Ec] | %3
 .[Fc]2 [CFA] [B,FG]2 [B,FA] | [EG]3- [EG]2 [Ec] | ed[Ec] dcA | ed[Ec] z DB/A/ | GcA B>cd | %8
[M:13/8] [Ec]- [Ec]3 z z z z z z z z2 |[M:3/4] [Fc]6 | [Ec]6 |] %11
V:2
 z3 z2 [C,G,] | [C,A,]2 [C,^F,] [C,G,]2 [C,G,] | [C,A,]2 [C,^F,] [C,G,]2 [C,G,] | %3
 .[D,G,]3[K:treble][K:bass] z3 | [C,C]3- [C,C]2 [C,C] | [C,_B,]2 [C,G,] [F,A,F]2 [F,CF] | %6
 z3 z2 .B, | z3 .D3 |[M:13/8][K:bass] [C,C]- [C,C]3 z z z z z z z z2 |[M:3/4] [F,A,]6 | [C,G,]6 |] %11
V:3
 x6 | x6 | x6 | z[K:treble] B[K:bass]D, G,,2 G,, | x6 | x6 | %6
 [C,B,]2 [C,G,] .[F,A,F]2 [^F,_E]/-[F,CE]/ | [G,CE]2 [G,CE] [G,F]->[G,CF][G,B,F] | %8
[M:13/8][K:bass] x13 |[M:3/4] x6 | x6 |] %11
V:4
 x6 | x6 | x6 | x6 | x6 | .E3 z3 | .E3 .c3 | x6 |[M:13/8] x13 |[M:3/4] x6 | x6 |] %11

